X: 66
M: 4/4
L: 1/8
K: D
"[Prelude]"A2 | d6 e2 |:\
f2d2 A2F2 | G2A2 B3c | d2A2 G2E2 | D2F2 A2d2 |
f2d2 A2"a."FF | G2A2 B3c | d2A2 G2E2 | D4 D4 ::
P: Var:
"a."F2 |]


